static/img/footer/x.svg

<svg width="28" height="24" viewBox="0 0 28 24" fill="none" xmlns="http://www.w3.org/2000/svg">
<g clip-path="url(#clip0_1142_1902)">
<path d="M21.7374 0H25.8774L16.7874 10.1845L27.4074 24H19.0734L12.5484 15.6044L5.07844 24H0.938438L10.5684 13.107L0.398438 0H8.93944L14.8344 7.66937L21.7374 0ZM20.2884 21.6089H22.5834L7.73344 2.30258H5.26744L20.2884 21.6089Z" fill="black"/>
</g>
<defs>
<clipPath id="clip0_1142_1902">
<rect width="27" height="24" fill="white" transform="translate(0.5)"/>
</clipPath>
</defs>
</svg>

<svg xmlns="http://www.w3.org/2000/svg" width="28" height="24" fill="none" viewBox="0 0 28 24"><g clip-path="url(#a)"><path fill="#000" d="M21.737 0h4.14l-9.09 10.185L27.407 24h-8.334l-6.525-8.396L5.078 24H.938l9.63-10.893L.398 0H8.94l5.895 7.67zm-1.449 21.609h2.295L7.733 2.303H5.267z"/></g><defs><clipPath id="a"><path fill="#fff" d="M.5 0h27v24H.5z"/></clipPath></defs></svg>
